X: 1104
T: Hüseynî Sazsemâîsi
C: Lavtacı Andon
O: Turkey
F: http://compmusic.upf.edu/node/140
N: huseyni--sazsemaisi--aksaksemai----lavtaci_andon
N: makam= huseyni
N: form= sazsemaisi
N: usul= aksaksemai = 10/8
M: 10/8
L: 1/16
K: C _2/4B ^3/4f  
Q: 1/4=144
%%MIDI tuningsystem comma53
A4 gfe3dd3/2c/ decd c2B2  | ABA2 B2cd c2de d2e4f2  | 
w:  1. HANE   |   | 
e4 a2ag fef2 g2a2 a=bag  | g4 gff3eeg fee4z2  | 
w:   |   | 
A2e2 e2=f3/2e/ ded2 c2d2 e2^3/4f2  | \
w:     TESLİM   | 
g4 =fee3df3/2e/ ded4cd  | 
w:   | 
e4 dcc3Bdc dcB3AG2  | d4 cBB3AAc BAAB cde2  | 
w:   |   | 
A2e2 e2=f3/2e/ ded2 c2d2 e2^3/4f2  | \
w:     TESLİM   | 
g4 =fee3df3/2e/ ded4cd  | 
w:   | 
e4 dcc3Bdc dcB3AG2  | d4 cBB3AAc BAA4z2  | 
w:   |   | 
G2A2 A2Ag fgeg fae2 eddc  | d3c edc3BdB BAA4z2  | 
w:  2. HANE   |   | 
g2f2 e2f2 g2a2 =b2ag fed2  | a4 gff3eg2 fee4z2  | 
w:   |   | 
A2e2 e2=f3/2e/ ded2 c2d2 e2^3/4f2  | \
w:     TESLİM   | 
g4 =fee3df3/2e/ ded4cd  | 
w:   | 
e4 dcc3Bdc dcB3AG2  | d4 cBB3AAc BAAB cde2  | 
w:   |   | 
A2e2 e2=f3/2e/ ded2 c2d2 e2^3/4f2  | \
w:     TESLİM   | 
g4 =fee3df3/2e/ ded4cd  | 
w:   | 
e4 dcc3Bdc dcB3AG2  | d4 cBB3AAc BAA4z2  | 
w:   |   | 
A4 abag fef2 a2g2 fed2  | e2f2 g2a2 baag fag4f2  | 
w:  3. HANE   |   | 
g2a2 =b2c'2 baag =fe^1/4f4e2  | a4 ^g^1/4ff4f2 fee4z2  | 
w:   |   | 
A2e2 e2=f3/2e/ ded2 c2d2 e2^3/4f2  | \
w:     TESLİM   | 
g4 =fee3df3/2e/ ded4cd  | 
w:   | 
e4 dcc3Bdc dcB3AG2  | d4 cBB3AAc BAAB cde2  | 
w:   |   | 
A2e2 e2=f3/2e/ ded2 c2d2 e2^3/4f2  | \
w:     TESLİM   | 
g4 =fee3df3/2e/ ded4cd  | 
w:   | 
e4 dcc3Bdc dcB3AG2  | d4 cBB3AAc BAA4z2  | 
w:   |   | 
z24  | A3A(3c2B2c2A3A(3g2f2a2e3ee3d  | \
w:  |  4. HANE   | 
(3g2f2g2(3e2f2g2e3d(3d2c2e2d3dd3d  | 
w:   | 
e3f(3g2a2b2a3g(3f2e2f2a3g(3f2e2d2  | \
w:   | 
a3a(3a2g2f2f3e(3g2f2e2e3d(3c2B2A2  | 
w:   | 
A3A(3c2B2c2A3A(3g2f2a2e3ee3d  | (3g2f2g2(3e2f2g2e3d(3d2c2e2d3dd3d  | 
w:  4. HANE   |   | 
e3f(3g2a2b2a3g(3f2e2f2a3g(3f2e2d2  | \
w:   | 
a3a(3a2g2f2f3e(3g2f2e2e4z4  | 
w:   | 
z20  | A2e2 e2=f3/2e/ ded2 c2d2 e2^3/4f2  | \
w:  |     TESLİM   | 
g4 =fee3df3/2e/ ded4cd  | 
w:   | 
e4 dcc3Bdc dcB3AG2  | d4 cBB3AAc BAAB cde2  | 
w:   |   | 
A2e2 e2=f3/2e/ ded2 c2d2 e2^3/4f2  | \
w:     TESLİM   | 
g4 =fee3df3/2e/ ded4cd  | 
w:   | 
e4 dcc3Bdc dcB3AG2  | d4 cBB3AAc BAA4z2  | 
w:   |   | 
|


